!!!COM: Palestrina, Giovanni Perluigi da
!!!OPR: Confitebor tibi
!!!OTL: Kyrie II
**kern	**kern	**kern	**kern	**kern	**kern	**kern	**kern
*Ibass	*Itenor	*Icalto	*Icant	*Ibass	*Itenor	*Icalto	*Icant
!Bassus	!Tenor	!Altus	!Cantus	!Bassus	!Tenor	!Altus	!Cantus
*clefF4	*clefGv2	*clefG2	*clefG2	*clefF4	*clefGv2	*clefG2	*clefG2
*k[b-]	*k[b-]	*k[b-]	*k[b-]	*k[b-]	*k[b-]	*k[b-]	*k[b-]
*G:dor	*G:dor	*G:dor	*G:dor	*G:dor	*G:dor	*G:dor	*G:dor
*M4/2	*M4/2	*M4/2	*M4/2	*M4/2	*M4/2	*M4/2	*M4/2
=1	=1	=1	=1	=1	=1	=1	=1
0r	0r	0r	0r	0r	1d	0r	1r
.	.	.	.	.	2d	.	1dd
.	.	.	.	.	2d	.	.
=2	=2	=2	=2	=2	=2	=2	=2
0r	0r	0r	0r	1G	2.g	1r	2dd
.	.	.	.	.	.	.	2dd
.	.	.	.	.	4f	.	.
.	.	.	.	2G	2e	1g	1gg
.	.	.	.	2G	2d	.	.
=3	=3	=3	=3	=3	=3	=3	=3
0r	0r	0r	0r	1c	2e	2g	1ee
.	.	.	.	.	2c	2g	.
.	.	.	.	1A	2c	1cc	2r
.	.	.	.	.	2c	.	2cc
=4	=4	=4	=4	=4	=4	=4	=4
0r	0r	0r	0r	2r	2.f	1a	2cc
.	.	.	.	2F	.	.	2cc
.	.	.	.	.	4e	.	.
.	.	.	.	2F	2d	2r	1ff
.	.	.	.	2F	2c	2f	.
=5	=5	=5	=5	=5	=5	=5	=5
0r	1r	0r	0r	1B-	1d	2f	1dd
.	.	.	.	.	.	2g	.
.	1c	.	.	2A	2e	[1a	2cc
.	.	.	.	4F	[2f	.	2a
.	.	.	.	4G	.	.	.
=6	=6	=6	=6	=6	=6	=6	=6
1r	2c	0r	1r	4A	2f]	2a]	1cc
.	.	.	.	4B-	.	.	.
.	2c	.	.	1c	2e	2g	.
1G	[1g	.	2r	.	1d	2.g	[1dd
.	.	.	2dd	4B	.	.	.
.	.	.	.	4A	.	8f	.
.	.	.	.	.	.	8e	.
=7	=7	=7	=7	=7	=7	=7	=7
2G	1g]	1g	2dd	1B	1G	2d	1dd]
2G	.	.	2dd	.	.	1g	.
1c	2e	2g	1ee	[1c	2g	.	2cc
.	2c	2g	.	.	2e	2cc	2g
=8	=8	=8	=8	=8	=8	=8	=8
1A	2c	1cc	2ee	2c]	2e	2cc	2.a
.	2c	.	2cc	2F	2f	2.a	.
.	.	.	.	.	.	.	4b-
2r	2.f	1a	2cc	[1F	1c	.	2cc
.	.	.	.	.	.	4b-	.
2F	.	.	2cc	.	.	2cc	2a
.	4e	.	.	.	.	.	.
=9	=9	=9	=9	=9	=9	=9	=9
2F	2d	2r	1ff	1F]	0r	1f	1a
2F	2c	2f	.	.	.	.	.
1B-	1d	2f	1dd	1r	.	1r	1r
.	.	2f	.	.	.	.	.
=10	=10	=10	=10	=10	=10	=10	=10
2.A	1e	2a	2.cc	1r	1r	1r	2r
.	.	2.cc	.	.	.	.	2cc
4G	.	.	4b-	.	.	.	.
2.F	2f	.	2a	2r	1f	1a	2cc
.	.	4b-	.	.	.	.	.
.	2c	4a	2f	2F	.	.	2cc
4E	.	4g	.	.	.	.	.
=11	=11	=11	=11	=11	=11	=11	=11
1D	1d	1f	2a	2F	2f	2a	1ff
.	.	.	2b-	2F	2d	2f	.
2C	2G	2r	[1cc	[1c	1e	[1g	[1ee
2C	[2g	4c	.	.	.	.	.
.	.	4d	.	.	.	.	.
=12	=12	=12	=12	=12	=12	=12	=12
2C	2g]	4e	1cc]	1c]	2e	1g]	1ee]
.	.	4f	.	.	.	.	.
2C	2e	4g	.	.	2c	.	.
.	.	4e	.	.	.	.	.
[1F	2c	4f	2r	1A	2c	[1a	2r
.	.	4g	.	.	.	.	.
.	[2f	4a	2a	.	2c	.	2cc
.	.	4b-	.	.	.	.	.
=13	=13	=13	=13	=13	=13	=13	=13
1F]	4f]	1cc	2a	2r	2f	1a]	2cc
.	8e	.	.	.	.	.	.
.	8d	.	.	.	.	.	.
.	2c	.	2a	2F	2.f	.	2cc
1D	2d	1f	2.dd	2F	.	2r	1ff
.	.	.	.	.	4e	.	.
.	2A	.	.	2F	4d	2f	.
.	.	.	4ee	.	4c	.	.
=14	=14	=14	=14	=14	=14	=14	=14
1BB-	2.d	2r	2ff	1B-	2d	2f	1dd
.	.	2.f	2ff	.	2B-	2f	.
.	4e	.	.	.	.	.	.
2.F	1f	.	2r	2.A	[1c	2.a	[1cc
.	.	4g	.	.	.	.	.
.	.	[2a	2cc	.	.	.	.
4G	.	.	.	4G	.	4b-	.
=15	=15	=15	=15	=15	=15	=15	=15
4A	2c	2a]	2cc	2F	1c]	2cc	2cc]
4B-	.	.	.	.	.	.	.
1c	2e	2g	2cc	2E	.	2c	2g
.	2.f	2f	1ff	1D	1F	1d	1dd
2B	.	2d	.	.	.	.	.
.	4d	.	.	.	.	.	.
=16	=16	=16	=16	=16	=16	=16	=16
1c	4e	2.g	1ee	4C	1G	1r	2g
.	4f	.	.	4D	.	.	.
.	1g	.	.	4E	.	.	2cc
.	.	4a	.	4F	.	.	.
1G	.	1b-	[1dd	4G	1g	2r	4b-
.	.	.	.	4A	.	.	4cc
.	2d	.	.	4B-	.	2d	4dd
.	.	.	.	4c	.	.	4ee
=17	=17	=17	=17	=17	=17	=17	=17
1D	1d	1a	1dd]	1.d	2.f	4d	2ff
.	.	.	.	.	.	4e	.
.	.	.	.	.	.	4f	2dd
.	.	.	.	.	4e	4g	.
1r	1r	1r	1r	.	2d	2a	2ff
.	.	.	.	2c#	2e	2a	[2ee
=18	=18	=18	=18	=18	=18	=18	=18
1D	2r	2r	2r	1d	1f	0a	4ee]
.	.	.	.	.	.	.	4dd
.	2A	2a	2dd	.	.	.	1dd
2A	2A	2a	2ee	1A	1e	.	.
2A	[2a	2a	2ee	.	.	.	2cc#
=19	=19	=19	=19	=19	=19	=19	=19
4D	4a]	4f	2.ff	1d	1d	1a	1dd
4E	4g	4g	.	.	.	.	.
4F	2f	4a	.	.	.	.	.
4G	.	4b-	8ee	.	.	.	.
.	.	.	8dd	.	.	.	.
4A	1e	1a	4cc	1r	1r	1r	1r
4B-	.	.	4dd	.	.	.	.
4c	.	.	4ee	.	.	.	.
4A	.	.	4cc	.	.	.	.
=20	=20	=20	=20	=20	=20	=20	=20
4B-	1d	1f	4dd	2r	2r	2r	2r
4c	.	.	4ee	.	.	.	.
1d	.	.	2ff	2D	2A	2a	2dd
.	1A	[1a	1ee	2A	2A	2a	2ee
2c#	.	.	.	2A	[2a	2a	2ee
=21	=21	=21	=21	=21	=21	=21	=21
1d	1d	1a]	1dd	4D	4a]	4f	2.ff
.	.	.	.	4E	4g	4g	.
.	.	.	.	4F	2f	4a	.
.	.	.	.	4G	.	4b-	8ee
.	.	.	.	.	.	.	8dd
1r	1r	1r	1r	4A	1e	1a	4cc
.	.	.	.	4B-	.	.	4dd
.	.	.	.	4c	.	.	4ee
.	.	.	.	4A	.	.	4cc
=22	=22	=22	=22	=22	=22	=22	=22
0r	2r	0r	0r	4B-	1d	2.f	4dd
.	.	.	.	4c	.	.	4ee
.	2d	.	.	1d	.	.	1ff
.	.	.	.	.	.	4g	.
.	2e	.	.	.	2A	1a	.
.	2e	.	.	2c#	[2a	.	[2ee
=23	=23	=23	=23	=23	=23	=23	=23
1D	2f	2r	1dd	1d	4a]	[0a	2ee]
.	.	.	.	.	4g	.	.
.	2d	2a	.	.	2f	.	1dd
2A	2r	2a	2ee	1A	1e	.	.
2A	[2a	2a	2ee	.	.	.	2cc#
=24	=24	=24	=24	=24	=24	=24	=24
4D	4a]	4f	2.ff	1d	1d	1a]	1dd
4E	4g	4g	.	.	.	.	.
4F	2f	4a	.	.	.	.	.
4G	.	4b-	8ee	.	.	.	.
.	.	.	8dd	.	.	.	.
4A	1e	1a	4cc	1r	1r	1r	1r
4B-	.	.	4dd	.	.	.	.
4c	.	.	4ee	.	.	.	.
4A	.	.	4cc	.	.	.	.
=25	=25	=25	=25	=25	=25	=25	=25
4B-	1d	2.f	4dd	0r	2r	0r	0r
4c	.	.	4ee	.	.	.	.
1d	.	.	1ff	.	2d	.	.
.	.	4g	.	.	.	.	.
.	2A	[1a	.	.	2e	.	.
2c#	[2a	.	[2ee	.	2e	.	.
=26	=26	=26	=26	=26	=26	=26	=26
1d	4a]	1a]	2ee]	1D	2f	2r	1dd
.	4g	.	.	.	.	.	.
.	2f	.	1dd	.	2d	2a	.
1A	1e	2r	.	2A	2r	2a	2ee
.	.	2a	2cc#	2A	2A	2a	2ee
=27	=27	=27	=27	=27	=27	=27	=27
2r	1d	2a	[0dd	2.D	2A	2.f	2.ff
2D	.	2a	.	.	2.f	.	.
.	.	.	.	4E	.	4g	4ee
2D	1d	2f	.	2F	.	2a	4dd
.	.	.	.	.	4e	.	4cc
[2G	.	[2b-	.	4G	4d	4g	4b-
.	.	.	.	4A	4c	4f	4a
=28	=28	=28	=28	=28	=28	=28	=28
2G]	2d	2b-]	0dd]	4B-	1d	2g	2g
.	.	.	.	4G	.	.	.
2D	2.d	2a	.	2d	.	2a	2f
1G	.	1g	.	2B-	[1d	2d	2g
.	4c	.	.	.	.	.	.
.	2B-	.	.	2G	.	[2g	[2dd
=29	=29	=29	=29	=29	=29	=29	=29
0D	0A	1a	[0dd	0d	1d]	2g]	2dd]
.	.	.	.	.	.	4f#	2.dd
.	.	.	.	.	.	4e	.
.	.	1d	.	.	1d	1f#	.
.	.	.	.	.	.	.	4cc
.	.	.	.	.	.	.	2a
=30	=30	=30	=30	=30	=30	=30	=30
0G	0G	0d	0dd]	0G	0d	0g	0b
==	==	==	==	==	==	==	==
*-	*-	*-	*-	*-	*-	*-	*-
!!!CDT: 1525/^1526/-1594/2/2
!!!OCY: Italia
!!!AGN: Mass (Parody)
!!!AST: renaissance, vocal
!!!ASW: Motet 1572 (Palestrina)
!!!PWK: Masses, Book 8vce
!!!RNB: Cadence finals: D,Bb
!!!YOR: Le Opere Complete, v. 30, p. 163
!!!YOO: Rome, Italy: Fratelli Scalera
!!!END: 1992//
!!!EED: John Miller
!!!YEC: Copyright 2000, John Miller
!!!YEN: United States of America
!!!YEM: Rights to all derivative electronic formats reserved.
!!!YEM: Refer to licensing agreement for further details.
!!!YEM: This file must be accompanied by the licensing agreement.
!!!YEM: A copy of the licensing agreement may be found at http://www.music-cog.ohio-state.edu/HumdrumDatabases/Palestrina/license.txt
!!!EMD: converted to Humdrum by Bret Aarden
